X: 2372
T: Baiting The Hook
R: reel
M: 4/4
K: Gminor
B,2B,C DFBF|DB,(3B,B,B, CA,(3A,A,A,|B,2B,C DFBF|1 DB,CA, G,2G,A,:|2 DB,CA, G,2B,C||
DGGA B3c|AF(3FFF cFcf|dB(3BBB cA(3AAA|(3Bcd gA G3A|
BABd (3gab ea|afdB AF(3FFF|dB(3BBB cA(3AAA|BGDB, G,2G,A,|

